packages/icons/svg/Fill/google.svg

<svg fill="none" height="24" viewBox="0 0 24 24" width="24" xmlns="http://www.w3.org/2000/svg"><path clip-rule="evenodd" d="m17.4951 13.9805c-.666 2.142-2.326 3.625-4.535 3.952-3.37103.499-6.68103-2.057-6.94303-5.457-.272-3.52801 2.511-6.47501 5.98403-6.47501.803 0 1.569.158 2.269.444.243.099.518.014.642-.216l1.435-2.647c.136-.253.038-.579-.224-.697-1.257-.568-2.651-.884-4.119-.884-5.62203 0-10.16103 4.636-10.00003 10.29301.147 5.161 4.407 9.479 9.56403 9.698 5.546.234 10.146-4.046 10.425-9.469.011-.198.007-1.351.003-2.027-.001-.276-.225-.495-.5-.495h-8.999c-.276 0-.5.223-.5.5v2.98c0 .275.224.5.5.5z" fill="#6b7280" fill-rule="evenodd"/></svg>

<svg width="24" height="24" viewBox="0 0 24 24" fill="none" xmlns="http://www.w3.org/2000/svg">
<g id="Icon/Fill/google">
<path id="Mask" fill-rule="evenodd" clip-rule="evenodd" d="M17.4952 13.9805C16.8292 16.1225 15.1692 17.6055 12.9602 17.9325C9.58915 18.4315 6.27915 15.8755 6.01715 12.4755C5.74515 8.9475 8.52815 6.0005 12.0012 6.0005C12.8042 6.0005 13.5702 6.1585 14.2702 6.4445C14.5132 6.5435 14.7882 6.4585 14.9122 6.2285L16.3472 3.5815C16.4832 3.3285 16.3852 3.0025 16.1232 2.8845C14.8662 2.3165 13.4722 2.0005 12.0042 2.0005C6.38215 2.0005 1.84315 6.6365 2.00415 12.2935C2.15115 17.4545 6.41115 21.7725 11.5682 21.9915C17.1142 22.2255 21.7142 17.9455 21.9932 12.5225C22.0042 12.3245 22.0002 11.1715 21.9962 10.4955C21.9952 10.2195 21.7712 10.0005 21.4962 10.0005H12.4972C12.2212 10.0005 11.9972 10.2235 11.9972 10.5005V13.4805C11.9972 13.7555 12.2212 13.9805 12.4972 13.9805H17.4952Z" fill="#000000"/>
</g>
</svg>
